X: 42
T:Burren, The
R:reel
S:Bev
M:4/4
L:1/8
K:Em
|~B3A Bded|BdAc BE ~E2|BAGA (3Bcd ef|1gfed Bded:|2gfed Bdef|
|gfge dB ~B2|dBeB (3Bcd ef|~g3a bgaf|1gfed (3Bcd ef:|2gfed (3Bcd ed||

